X: 1029
T: the Shetland Fiddler (A13)
N: page A13
N: heptatonic
R: Reel
M: 4/4
L: 1/8
K: D
|:  uAc | "D"vd2ufd vAdfe | vdefg vafdf |\
    "Em"ve2 uge vBded | "A"vcdef vgece |
     "D"vd2ufd vAdfe | vdefg vafdg |\
     "D"vfafd "D/F#"vfafd | "A7"vBgec "D"vd2 ::
  ucd | "A7"veAfA vgAaA | vfAaf vgfed |\
      "A7"vAABA vcAdA | "A7"vefed "A7/E" vcABc |
       "D"vdded vfdgd | vfdaf vgfeg |\
       "D"vfafd "D/F#"vfafd | "A7"vBgec "D"vd2 :|
